X: 48
T:Hornpipe,A. 048
M:C
Q:180
C:Untitled in MS
S:Wm Irwin, Folio MS, c1850. AGG's Transcription
R:Hornpipe
O:England
A:Lake District
Z:vmp.Chris Partington.2005
K:Bb
dc|B2b2 B2gf|edcB AGFE|DFBd edcB|A2f2 f2dc|!
B2b2 B2gf|edcB AGFE|FABe ceAc|c2B2B2:|!
|:Bc|dBFB d2d2|cAFA c2c2|edef gecB|A2f2 f2Bc|!
dBFB d2d2|cAFA c2c2|Bbge|dcBA|c2B2 B2:|]
